assets/img/cds-data-integrity.svg

<svg width="70" height="71" viewBox="0 0 70 71" fill="none" xmlns="http://www.w3.org/2000/svg">
<path d="M14.5837 15.8336H15.3337V15.0836V6.33362V5.58362H14.5837H5.83374H5.08374V6.33362V15.0836V15.8336H5.83374H14.5837ZM19.6656 20.1655H0.75V1.24988H19.6656V20.1655Z" fill="#2563eb" stroke="white" stroke-width="1.5"/>
<path d="M14.5837 65.4176H15.3337V64.6676V55.9176V55.1676H14.5837H5.83374H5.08374V55.9176V64.6676V65.4176H5.83374H14.5837ZM19.6656 69.7498H0.75V50.8326H19.6656V69.7498Z" fill="#2563eb" stroke="white" stroke-width="1.5"/>
<path d="M64.167 15.8336H64.917V15.0836V6.33362V5.58362H64.167H55.417H54.667V6.33362V15.0836V15.8336H55.417H64.167ZM69.2501 20.1655H50.3345V1.24988H69.2501V20.1655Z" fill="#2563eb" stroke="white" stroke-width="1.5"/>
<path d="M38.6662 6.33362V5.58362H37.9162H27V1.2499L43 1.25048V20.1661H38.6662V6.33362Z" fill="#2563eb" stroke="white" stroke-width="1.5"/>
<path d="M31.3345 64.667V65.4171L32.0845 65.417L37.167 65.4167V69.7492H27.0007V50.832H31.3345V64.667Z" fill="#2563eb" stroke="white" stroke-width="1.5"/>
<path d="M64.9153 27.4998H69.249V37.6673H64.9153V27.4998Z" fill="#2563eb" stroke="white" stroke-width="1.5"/>
<path d="M43.7507 31.8336H43.0007V32.5836V37.6673H38.667V27.4998H57.5842L57.5844 31.8336H43.7507Z" fill="#2563eb" stroke="white" stroke-width="1.5"/>
<path d="M12.4155 39.167H31.3327V43.4995H12.4155V39.167Z" fill="#2563eb" stroke="white" stroke-width="1.5"/>
<path d="M26.25 27.4992H27V26.7492V12.9155L31.3337 12.9157V31.8329H5.83374H5.08374V32.5829V43.4992H0.75V27.4992H26.25Z" fill="#2563eb" stroke="white" stroke-width="1.5"/>
<path d="M55.4155 41.3326C47.3613 41.3326 40.833 47.8609 40.833 55.917C40.833 63.9718 47.3613 70.5001 55.4155 70.5001C63.4709 70.5001 69.9992 63.9718 69.9992 55.9176C69.9992 47.8611 63.4709 41.3326 55.4155 41.3326V41.3326ZM54.3846 62.3623L46.6515 54.6273L49.7448 51.534L54.3846 56.1739L61.0863 49.4715L64.1796 52.5648L54.3846 62.3623Z" fill="#2563eb"/>
</svg>

<svg fill="none" height="71" viewBox="0 0 70 71" width="70" xmlns="http://www.w3.org/2000/svg"><g fill="#2563eb"><g stroke="#fff" stroke-width="1.5"><path d="m14.5837 15.8336h.75v-.75-8.74998-.75h-.75-8.74996-.75v.75 8.74998.75h.75zm5.0819 4.3319h-18.9156v-18.91562h18.9156z"/><path d="m14.5837 65.4176h.75v-.75-8.75-.75h-.75-8.74996-.75v.75 8.75.75h.75zm5.0819 4.3322h-18.9156v-18.9172h18.9156z"/><path d="m64.167 15.8336h.75v-.75-8.74998-.75h-.75-8.75-.75v.75 8.74998.75h.75zm5.0831 4.3319h-18.9156v-18.91562h18.9156z"/><path d="m38.6662 6.33362v-.75h-.75-10.9162v-4.33372l16 .00058v18.91562h-4.3338z"/><path d="m31.3345 64.667v.7501l.75-.0001 5.0825-.0003v4.3325h-10.1663v-18.9172h4.3338z"/><path d="m64.9153 27.4998h4.3337v10.1675h-4.3337z"/><path d="m43.7507 31.8336h-.75v.75 5.0837h-4.3337v-10.1675h18.9172l.0002 4.3338z"/><path d="m12.4155 39.167h18.9172v4.3325h-18.9172z"/><path d="m26.25 27.4992h.75v-.75-13.8337l4.3337.0002v18.9172h-25.49996-.75v.75 10.9163h-4.33374v-16z"/></g><path d="m55.4155 41.3326c-8.0542 0-14.5825 6.5283-14.5825 14.5844 0 8.0548 6.5283 14.5831 14.5825 14.5831 8.0554 0 14.5837-6.5283 14.5837-14.5825 0-8.0565-6.5283-14.585-14.5837-14.585zm-1.0309 21.0297-7.7331-7.735 3.0933-3.0933 4.6398 4.6399 6.7017-6.7024 3.0933 3.0933z"/></g></svg>
